X: 5
T: Reel d'Hotelier
I: Reel d'Hotelier	R-114	D	reel
M: C|
R: reel
K: D
%%textfont       Times-Roman 9.0
%%text Repeat both part 4 times
%%vskip 4pt
%%textfont       Times-Roman 7.0
AG| "D"FDDD DFAd| "G"BGGF G2ed| "A"cAAA Aceg| "D"fddc d2 :|
|:ef| "G"gagf g2b2| "D"abaf d2fa| "A"gece Aceg| "D"fddc d2 :|
%%text Roaring Jelly  R-114

%%vskip 10pt

